pix_core/t/addcontact.svg

<svg preserveAspectRatio="xMinYMid meet" viewBox="0 0 576 512" xmlns="http://www.w3.org/2000/svg"><path d="m64 32c-35.3 0-64 28.7-64 64v320c0 35.3 28.7 64 64 64h448c35.3 0 64-28.7 64-64v-320c0-35.3-28.7-64-64-64zm80 256h64c44.2 0 80 35.8 80 80 0 8.8-7.2 16-16 16h-192c-8.8 0-16-7.2-16-16 0-44.2 35.8-80 80-80zm-32-96a64 64 0 1 1 128 0 64 64 0 1 1 -128 0zm256-32h128c8.8 0 16 7.2 16 16s-7.2 16-16 16h-128c-8.8 0-16-7.2-16-16s7.2-16 16-16zm0 64h128c8.8 0 16 7.2 16 16s-7.2 16-16 16h-128c-8.8 0-16-7.2-16-16s7.2-16 16-16zm0 64h128c8.8 0 16 7.2 16 16s-7.2 16-16 16h-128c-8.8 0-16-7.2-16-16s7.2-16 16-16z" fill="#fff"/></svg>

<svg xmlns="http://www.w3.org/2000/svg" viewBox="0 0 576 512" preserveAspectRatio="xMinYMid meet"><!--!Font Awesome Free 6.5.2 by @fontawesome - https://fontawesome.com License - https://fontawesome.com/license/free Copyright 2024 Fonticons, Inc.--><path fill="#fff" d="M64 32C28.7 32 0 60.7 0 96V416c0 35.3 28.7 64 64 64H512c35.3 0 64-28.7 64-64V96c0-35.3-28.7-64-64-64H64zm80 256h64c44.2 0 80 35.8 80 80c0 8.8-7.2 16-16 16H80c-8.8 0-16-7.2-16-16c0-44.2 35.8-80 80-80zm-32-96a64 64 0 1 1 128 0 64 64 0 1 1 -128 0zm256-32H496c8.8 0 16 7.2 16 16s-7.2 16-16 16H368c-8.8 0-16-7.2-16-16s7.2-16 16-16zm0 64H496c8.8 0 16 7.2 16 16s-7.2 16-16 16H368c-8.8 0-16-7.2-16-16s7.2-16 16-16zm0 64H496c8.8 0 16 7.2 16 16s-7.2 16-16 16H368c-8.8 0-16-7.2-16-16s7.2-16 16-16z"/></svg>
